X:2915
T:Cheltenham Waltz. JC.123
M:3/8
L:1/8
Q:30
S:John Clare,Poet,Helpston. (1793-1864)
R:Waltz
O:England
A:Northamptonshire
N:MR Bars 21,25,27,29 Following the dotted qu's, the qu's in the MS are
N:given as semi-qu's.
Z:P Headford
K:D
A/A/|FDF|AFA|ddd|d2e|f>ga|agf|eee|e2A/>A/|!
FDF|AFA|ddd|d2e|f>af|{f}ede|ddd|d2|!
|d/e/|f>ga|agf|gab|baf|e>fg|gfe|fa^g|a2d/e/|!
f>gf|fed|B>cB|Bcd|A>BA|ABc|edd|d2|]


